img/useCases/Unblock Social Media.svg

<svg width="94" height="94" viewBox="0 0 94 94" fill="none" xmlns="http://www.w3.org/2000/svg">
<path d="M93.8002 47.0001C93.8002 72.8471 72.8471 93.8002 47.0001 93.8002C21.1531 93.8002 0.2 72.8471 0.2 47.0001C0.2 21.1531 21.1531 0.2 47.0001 0.2C72.8471 0.2 93.8002 21.1531 93.8002 47.0001Z" fill="#F9FBFF" stroke="#0037FC" stroke-width="0.4"/>
<path d="M46.2164 43.1443C46.2164 43.9463 45.8978 44.7155 45.3307 45.2826C44.7635 45.8497 43.9944 46.1683 43.1923 46.1683H25.0481L19 52.2164V28.024C19 27.222 19.3186 26.4528 19.8857 25.8857C20.4528 25.3186 21.222 25 22.024 25H43.1923C43.9944 25 44.7635 25.3186 45.3307 25.8857C45.8978 26.4528 46.2164 27.222 46.2164 28.024V43.1443Z" fill="#0037FC"/>
<path d="M38.1979 37.7502L38.1964 37.7517L33.3243 42.6238L28.4522 37.7517L28.4522 37.7516L28.4498 37.7493C27.3766 36.7119 26.3621 35.5105 26.3621 33.9539C26.3621 32.9622 26.7561 32.0111 27.4573 31.3098C28.1585 30.6086 29.1096 30.2146 30.1013 30.2146C30.7116 30.2146 31.2201 30.3011 31.7028 30.5114C32.1867 30.7221 32.6571 31.0627 33.1829 31.5885L33.3243 31.7299L33.4657 31.5885C33.9915 31.0627 34.4619 30.7221 34.9458 30.5114C35.4285 30.3011 35.9371 30.2146 36.5473 30.2146C37.539 30.2146 38.4901 30.6086 39.1913 31.3098C39.8926 32.0111 40.2865 32.9622 40.2865 33.9539C40.2865 35.5032 39.2655 36.7041 38.1979 37.7502Z" fill="white" stroke="#0037FC" stroke-width="0.4"/>
<path d="M49.2289 43.1443C49.2289 43.9463 49.5475 44.7155 50.1146 45.2826C50.6818 45.8497 51.4509 46.1683 52.253 46.1683H70.3972L76.4453 52.2164V28.024C76.4453 27.222 76.1267 26.4528 75.5596 25.8857C74.9925 25.3186 74.2233 25 73.4213 25H52.253C51.4509 25 50.6818 25.3186 50.1146 25.8857C49.5475 26.4528 49.2289 27.222 49.2289 28.024V43.1443Z" fill="#0037FC"/>
<path fill-rule="evenodd" clip-rule="evenodd" d="M57.1084 31.4462C57.1084 31.0506 57.4291 30.73 57.8246 30.73H67.8517C68.2473 30.73 68.5679 31.0506 68.5679 31.4462C68.5679 31.8418 68.2473 32.1624 67.8517 32.1624H57.8246C57.4291 32.1624 57.1084 31.8418 57.1084 31.4462Z" fill="white"/>
<path fill-rule="evenodd" clip-rule="evenodd" d="M57.1084 35.7431C57.1084 35.3475 57.4291 35.0269 57.8246 35.0269H70.7166C71.1121 35.0269 71.4328 35.3475 71.4328 35.7431C71.4328 36.1386 71.1121 36.4593 70.7166 36.4593H57.8246C57.4291 36.4593 57.1084 36.1386 57.1084 35.7431Z" fill="white"/>
<path fill-rule="evenodd" clip-rule="evenodd" d="M57.1084 39.9692C57.1084 39.5736 57.4291 39.2529 57.8246 39.2529H66.4909C66.8865 39.2529 67.2071 39.5736 67.2071 39.9692C67.2071 40.3647 66.8865 40.6854 66.4909 40.6854H57.8246C57.4291 40.6854 57.1084 40.3647 57.1084 39.9692Z" fill="white"/>
<path d="M59.2164 67.1443C59.2164 67.9463 58.8978 68.7155 58.3307 69.2826C57.7635 69.8497 56.9944 70.1683 56.1923 70.1683H38.0481L32 76.2164V52.024C32 51.222 32.3186 50.4528 32.8857 49.8857C33.4528 49.3186 34.222 49 35.024 49H56.1923C56.9944 49 57.7635 49.3186 58.3307 49.8857C58.8978 50.4528 59.2164 51.222 59.2164 52.024V67.1443Z" fill="#0037FC"/>
<path d="M49.1893 54.6439L48.4731 57.5948H52.6486C52.871 57.5948 53.0903 57.6465 53.2892 57.746C53.4881 57.8454 53.6612 57.9898 53.7946 58.1677C53.928 58.3456 54.0182 58.5522 54.058 58.771C54.0977 58.9897 54.086 59.2148 54.0238 59.4283L52.355 65.158C52.2682 65.4556 52.0873 65.717 51.8393 65.9029C51.5914 66.0889 51.2898 66.1894 50.9798 66.1894H41.3109C40.931 66.1894 40.5666 66.0385 40.298 65.7699C40.0293 65.5012 39.8784 65.1369 39.8784 64.757V59.0272C39.8784 58.6473 40.0293 58.2829 40.298 58.0143C40.5666 57.7457 40.931 57.5948 41.3109 57.5948H43.2876C43.5541 57.5946 43.8153 57.5201 44.0418 57.3797C44.2683 57.2392 44.4511 57.0384 44.5697 56.7998L47.0406 51.865C47.3784 51.8692 47.7108 51.9496 48.0131 52.1003C48.3154 52.251 48.5797 52.4681 48.7863 52.7353C48.993 53.0026 49.1365 53.313 49.2063 53.6435C49.2761 53.974 49.2702 54.316 49.1893 54.6439Z" fill="white"/>
<path fill-rule="evenodd" clip-rule="evenodd" d="M43.4599 56.8787C43.8554 56.8787 44.1761 57.1993 44.1761 57.5949V66.1895C44.1761 66.5851 43.8554 66.9058 43.4599 66.9058C43.0643 66.9058 42.7437 66.5851 42.7437 66.1895V57.5949C42.7437 57.1993 43.0643 56.8787 43.4599 56.8787Z" fill="#0037FC"/>
</svg>

<svg width="94" height="94" fill="none" xmlns="http://www.w3.org/2000/svg"><path d="M93.8 47c0 25.847-20.953 46.8-46.8 46.8C21.153 93.8.2 72.847.2 47 .2 21.153 21.153.2 47 .2 72.847.2 93.8 21.153 93.8 47z" fill="#F9FBFF" stroke="#0037FC" stroke-width=".4"/><path d="M46.216 43.144a3.024 3.024 0 01-3.024 3.024H25.048L19 52.216V28.024A3.024 3.024 0 0122.024 25h21.168a3.024 3.024 0 013.024 3.024v15.12z" fill="#0037FC"/><path d="M38.198 37.75l-.002.002-4.872 4.872-4.872-4.872h0l-.002-.003c-1.073-1.037-2.088-2.239-2.088-3.795a3.74 3.74 0 013.74-3.74c.61 0 1.118.087 1.6.297.485.211.955.552 1.48 1.078l.142.14.142-.14c.526-.526.996-.867 1.48-1.078.483-.21.991-.296 1.601-.296a3.74 3.74 0 013.74 3.739c0 1.55-1.021 2.75-2.09 3.796z" fill="#fff" stroke="#0037FC" stroke-width=".4"/><path d="M49.229 43.144a3.024 3.024 0 003.024 3.024h18.144l6.048 6.048V28.024A3.024 3.024 0 0073.421 25H52.253a3.024 3.024 0 00-3.024 3.024v15.12z" fill="#0037FC"/><path fill-rule="evenodd" clip-rule="evenodd" d="M57.108 31.446c0-.395.321-.716.717-.716h10.027a.716.716 0 110 1.432H57.825a.716.716 0 01-.717-.716zm0 4.297c0-.396.321-.716.717-.716h12.892a.716.716 0 110 1.432H57.825a.716.716 0 01-.717-.716zm0 4.227c0-.396.321-.717.717-.717h8.666a.716.716 0 010 1.432h-8.666a.716.716 0 01-.717-.716z" fill="#fff"/><path d="M59.216 67.144a3.024 3.024 0 01-3.024 3.024H38.048L32 76.216V52.024A3.024 3.024 0 0135.024 49h21.168a3.024 3.024 0 013.024 3.024v15.12z" fill="#0037FC"/><path d="M49.19 54.644l-.717 2.95h4.176a1.432 1.432 0 011.375 1.834l-1.669 5.73a1.432 1.432 0 01-1.375 1.031h-9.67a1.433 1.433 0 01-1.432-1.432v-5.73a1.432 1.432 0 011.433-1.432h1.977a1.434 1.434 0 001.282-.795l2.47-4.935a2.242 2.242 0 012.15 2.779z" fill="#fff"/><path fill-rule="evenodd" clip-rule="evenodd" d="M43.46 56.879c.395 0 .716.32.716.716v8.594a.716.716 0 11-1.432 0v-8.594c0-.396.32-.716.716-.716z" fill="#0037FC"/></svg>
